src/scalable/mimetypes/text-x-chdr.svg

<?xml version="1.0" encoding="UTF-8" standalone="no"?>
<svg
   xmlns:dc="http://purl.org/dc/elements/1.1/"
   xmlns:cc="http://creativecommons.org/ns#"
   xmlns:rdf="http://www.w3.org/1999/02/22-rdf-syntax-ns#"
   xmlns:svg="http://www.w3.org/2000/svg"
   xmlns="http://www.w3.org/2000/svg"
   xmlns:xlink="http://www.w3.org/1999/xlink"
   xmlns:sodipodi="http://sodipodi.sourceforge.net/DTD/sodipodi-0.dtd"
   xmlns:inkscape="http://www.inkscape.org/namespaces/inkscape"
   width="48px"
   height="48px"
   viewBox="0 0 48 48"
   version="1.1"
   id="svg18"
   sodipodi:docname="text-x-chdr.svg"
   inkscape:version="0.92.2 2405546, 2018-03-11">
  <metadata
     id="metadata22">
    <rdf:RDF>
      <cc:Work
         rdf:about="">
        <dc:format>image/svg+xml</dc:format>
        <dc:type
           rdf:resource="http://purl.org/dc/dcmitype/StillImage" />
      </cc:Work>
    </rdf:RDF>
  </metadata>
  <sodipodi:namedview
     pagecolor="#ffffff"
     bordercolor="#666666"
     borderopacity="1"
     objecttolerance="10"
     gridtolerance="10"
     guidetolerance="10"
     inkscape:pageopacity="0"
     inkscape:pageshadow="2"
     inkscape:window-width="1920"
     inkscape:window-height="1051"
     id="namedview20"
     showgrid="false"
     inkscape:zoom="4.9166667"
     inkscape:cx="24"
     inkscape:cy="24"
     inkscape:window-x="0"
     inkscape:window-y="29"
     inkscape:window-maximized="1"
     inkscape:current-layer="svg18" />
  <!-- Generator: Sketch 41.2 (35397) - http://www.bohemiancoding.com/sketch -->
  <title
     id="title2">text-x-chdr</title>
  <desc
     id="desc4">Created with Sketch.</desc>
  <g
     id="g829">
    <rect
       rx="2"
       ry="1.9047618"
       y="4"
       x="6"
       height="40"
       width="36"
       id="rect834"
       style="opacity:1;fill:#4caf50;fill-opacity:1;stroke:none;stroke-width:0.92582005;stroke-linecap:round;stroke-linejoin:round;stroke-miterlimit:4;stroke-dasharray:none;stroke-opacity:0.05882353;paint-order:markers stroke fill" />
    <path
       inkscape:connector-curvature="0"
       id="rect866"
       d="M 42,17.242188 A 40,40 0 0 1 23.494141,44 H 40 c 1.108,0 2,-0.849059 2,-1.904297 z"
       style="opacity:0.15;fill:url(#linearGradient877);fill-opacity:1;stroke:none;stroke-width:0.92582005;stroke-linecap:round;stroke-linejoin:round;stroke-miterlimit:4;stroke-dasharray:none;stroke-opacity:0.05882353;paint-order:markers stroke fill" />
  </g>
  <defs
     id="defs11">
    <linearGradient
       inkscape:collect="always"
       xlink:href="#linearGradient875"
       id="linearGradient877"
       x1="32.74707"
       y1="44"
       x2="32.74707"
       y2="17.242188"
       gradientUnits="userSpaceOnUse" />
    <linearGradient
       inkscape:collect="always"
       id="linearGradient875">
      <stop
         style="stop-color:#000000;stop-opacity:1;"
         offset="0"
         id="stop871" />
      <stop
         style="stop-color:#000000;stop-opacity:0;"
         offset="1"
         id="stop873" />
    </linearGradient>
  </defs>
  <g
     id="Page-1"
     stroke="none"
     stroke-width="1"
     fill="none"
     fill-rule="evenodd">
    <g
       id="text-x-chdr">
      <path
         d="M16.3242188,31.2197266 C15.9609357,31.2197266 15.6474623,31.1025402 15.3837891,30.8681641 C15.1201159,30.6337879 14.9882812,30.3056662 14.9882812,29.8837891 C14.9882812,29.5263654 15.1142566,29.2187513 15.3662109,28.9609375 C15.6181653,28.7031237 15.9287091,28.5742188 16.2978516,28.5742188 C16.666994,28.5742188 16.9819323,28.7016589 17.2426758,28.956543 C17.5034193,29.2114271 17.6337891,29.520506 17.6337891,29.8837891 C17.6337891,30.2998068 17.5034193,30.6264637 17.2426758,30.8637695 C16.9819323,31.1010754 16.675783,31.2197266 16.3242188,31.2197266 Z M22.7138672,19.3544922 L22.7138672,22.9140625 C23.0185562,22.5624982 23.3159165,22.2841807 23.605957,22.0791016 C23.8959975,21.8740224 24.2167951,21.7202154 24.5683594,21.6176758 C24.9199236,21.5151362 25.2978495,21.4638672 25.7021484,21.4638672 C26.3115265,21.4638672 26.8520484,21.5927721 27.3237305,21.8505859 C27.7954125,22.1083997 28.1660143,22.483396 28.4355469,22.9755859 C28.6054696,23.2626967 28.7197263,23.5834943 28.7783203,23.9379883 C28.8369144,24.2924822 28.8662109,24.7011696 28.8662109,25.1640625 L28.8662109,29.7607422 C28.8662109,30.2412133 28.7563488,30.604491 28.5366211,30.8505859 C28.3168934,31.0966809 28.0253924,31.2197266 27.6621094,31.2197266 C26.8710898,31.2197266 26.4755859,30.7334033 26.4755859,29.7607422 L26.4755859,25.7089844 C26.4755859,24.9414024 26.3613293,24.3510763 26.1328125,23.9379883 C25.9042957,23.5249003 25.4707063,23.3183594 24.8320312,23.3183594 C24.4042947,23.3183594 24.0190447,23.4399402 23.6762695,23.6831055 C23.3334944,23.9262707 23.0771493,24.258787 22.9072266,24.6806641 C22.7783197,25.0380877 22.7138672,25.6738236 22.7138672,26.5878906 L22.7138672,29.7607422 C22.7138672,30.2353539 22.6069347,30.5971667 22.3930664,30.8461914 C22.1791981,31.0952161 21.8818378,31.2197266 21.5009766,31.2197266 C20.709957,31.2197266 20.3144531,30.7334033 20.3144531,29.7607422 L20.3144531,19.3544922 C20.3144531,18.8681616 20.418456,18.5034192 20.6264648,18.2602539 C20.8344737,18.0170886 21.1259747,17.8955078 21.5009766,17.8955078 C21.8818378,17.8955078 22.1791981,18.0185535 22.3930664,18.2646484 C22.6069347,18.5107434 22.7138672,18.874021 22.7138672,19.3544922 Z"
         id=".h"
         fill="#FFFFFF" />
    </g>
  </g>
</svg>

<svg xmlns="http://www.w3.org/2000/svg" xmlns:xlink="http://www.w3.org/1999/xlink" width="48" height="48"><g paint-order="markers stroke fill"><rect rx="2" ry="1.905" y="4" x="6" height="40" width="36" fill="#4caf50"/><path d="M42 17.242A40 40 0 0 1 23.494 44H40c1.108 0 2-.85 2-1.904z" opacity=".15" fill="url(#a)"/></g><defs><linearGradient xlink:href="#b" id="a" x1="32.747" y1="44" x2="32.747" y2="17.242" gradientUnits="userSpaceOnUse"/><linearGradient id="b"><stop offset="0"/><stop offset="1" stop-opacity="0"/></linearGradient></defs><path d="M16.324 31.22c-.363 0-.677-.117-.94-.352-.264-.234-.396-.562-.396-.984 0-.358.126-.665.378-.923s.563-.387.932-.387c.369 0 .684.128.945.383.26.254.39.564.39.927 0 .416-.13.742-.39.98a1.32 1.32 0 0 1-.919.356zm6.39-11.866v3.56c.305-.352.602-.63.892-.835.29-.205.61-.359.962-.461.352-.103.73-.154 1.134-.154.61 0 1.15.129 1.622.387a2.76 2.76 0 0 1 1.112 1.125c.17.287.284.607.342.962.059.354.088.763.088 1.226v4.597c0 .48-.11.843-.33 1.09-.22.246-.51.369-.874.369-.79 0-1.186-.487-1.186-1.46V25.71c0-.768-.115-1.358-.343-1.771-.229-.413-.662-.62-1.301-.62a1.95 1.95 0 0 0-1.156.365c-.343.243-.599.576-.769.998-.129.357-.193.993-.193 1.907v3.173c0 .474-.107.836-.32 1.085-.215.25-.512.374-.893.374-.791 0-1.187-.487-1.187-1.46V19.355c0-.486.104-.85.312-1.094.208-.243.5-.364.875-.364.38 0 .678.123.892.369.214.246.32.609.32 1.09z" fill="#FFF" fill-rule="evenodd"/></svg>
